string-lights-off.svg

<svg fill="currentColor" viewBox="0 0 24 24"><path d="M14 10.74V8.96c.95-.06 1.86-.15 2.74-.29l.42 1.72a3.1 3.1 0 0 0-.43 2.43c.09.35.18.68.27.98l4.12 4.12c2.49-.66 1.97-4.37 1.44-6.53-.2-.8-.74-1.54-1.51-1.95l-.42-1.7c.48-.16.94-.33 1.37-.51V5c-2 1.07-5.47 2.03-10 2.03-.63 0-1.24-.03-1.83-.06m10.55 9.53c-1.45.34-2.53-4.03-2.53-4.03s-.36-1.47 1.1-1.82 1.81 1.1 1.81 1.1 1.08 4.37-.38 4.75m-5.77-2.21-1.45-1.46-1.32-1.33L10 9.34l-.42-.41h.01L7.32 6.66 2.39 1.73 1.11 3l2.8 2.8C3.19 5.55 2.53 5.28 2 5v2.23c.43.18.89.35 1.37.51l-.42 1.7a3.07 3.07 0 0 0-1.51 1.95c-.535 2.18-1.055 5.92 1.48 6.54C4 18.2 6 17.89 7.27 12.82c.19-.82.06-1.7-.43-2.43l.33-1.33 2.33 2.32c-.32.49-.5 1.06-.5 1.62 0 2.24.39 6 3 6 .8 0 1.97-.41 2.59-2.5l6.25 6.23 1.27-1.27-7.16-7.16zm-9.14-1.82s-1.07 4.37-2.53 4.03c-1.46-.38-.38-4.75-.38-4.75s.36-1.46 1.81-1.1 1.1 1.82 1.1 1.82M12 17.5c-1.5 0-1.5-4.5-1.5-4.5s0-.23.1-.5l2.72 2.71c-.19 1.14-.56 2.29-1.32 2.29"/></svg>

<svg  viewBox="0 0 24 24" fill="currentColor"><path  d="M14 10.74V8.96C14.95 8.9 15.86 8.81 16.74 8.67L17.16 10.39C16.67 11.12 16.54 12 16.73 12.82C16.82 13.17 16.91 13.5 17 13.8L21.12 17.92C23.61 17.26 23.09 13.55 22.56 11.39C22.36 10.59 21.82 9.85 21.05 9.44L20.63 7.74C21.11 7.58 21.57 7.41 22 7.23V5C20 6.07 16.53 7.03 12 7.03C11.37 7.03 10.76 7 10.17 6.97M20.72 16.5C19.27 16.84 18.19 12.47 18.19 12.47S17.83 11 19.29 10.65 21.1 11.75 21.1 11.75 22.18 16.12 20.72 16.5M14.95 14.29L13.5 12.83V12.83L12.18 11.5H12.18L10 9.34V9.34L9.58 8.93H9.59L7.32 6.66H7.32L2.39 1.73L1.11 3L3.91 5.8C3.19 5.55 2.53 5.28 2 5V7.23C2.43 7.41 2.89 7.58 3.37 7.74L2.95 9.44C2.18 9.85 1.64 10.59 1.44 11.39C.905 13.57 .385 17.31 2.92 17.93C4 18.2 6 17.89 7.27 12.82C7.46 12 7.33 11.12 6.84 10.39L7.17 9.06L9.5 11.38C9.18 11.87 9 12.44 9 13C9 15.24 9.39 19 12 19C12.8 19 13.97 18.59 14.59 16.5L20.84 22.73L22.11 21.46L14.95 14.3L14.95 14.29M5.81 12.47C5.81 12.47 4.74 16.84 3.28 16.5C1.82 16.12 2.9 11.75 2.9 11.75S3.26 10.29 4.71 10.65 5.81 12.47 5.81 12.47M12 17.5C10.5 17.5 10.5 13 10.5 13S10.5 12.77 10.6 12.5L13.32 15.21C13.13 16.35 12.76 17.5 12 17.5Z"/></svg>
